X: 1
T: The Roaring Barmaid
R: jig
M: 6/8
L: 1/8
K: Gmaj
|:GFG EGD|GFG EGD|DEG BGG|dGG BGG|GFG EGD|GFG EGD|GAB deg|deg edB:|deg b3|bab deg|b2b bag|edB deg|b2b bab|agg bgg|agg deg|deg edB:|


Tune 91	Setting 12629

